X:3148
T:Josefin's Baptism Waltz
O:england
C:Roger Tallroth
R:waltz
D:Dervish, "At the End of the Day". Vasen: "Essence"
M:3/4
L:1/4
K:F
CFG|AcB|AGF|C2D|B,>B,B,|DFE|D3|C3|
CFG|AcB|AGF|C2D|B,>B,B,|DEF|G3-|1 G3:|2 GAB||
|:cAc|f2e|d3|c3|Bdc|BAG|A>BA|GAB|
cAc|f2e|d3|c3|Bdc|BAG|A>BA|GAB|
AGF|E2F|F3|B,CB,|A,CF|EDE|F3-|1 FAB:|2 F3||


